static/images/treasury-decentralized-decision-making.svg

<svg height="100" viewBox="0 0 103 100" width="103" xmlns="http://www.w3.org/2000/svg"><g fill="none" fill-rule="evenodd"><circle cx="88.018" cy="50.16" r="14.834"/><circle cx="88.018" cy="50.16" r="13.334" stroke="#686868" stroke-width="3"/><circle cx="88.018" cy="50.16" r="9.674"/><circle cx="88.018" cy="50.16" r="8.924" stroke="#686868" stroke-width="1.5"/><circle cx="14.886" cy="50.16" r="14.834"/><circle cx="14.886" cy="50.16" r="13.334" stroke="#686868" stroke-width="3"/><circle cx="14.886" cy="50.16" r="9.674"/><g stroke="#686868" transform="translate(0 1)"><circle cx="14.886" cy="49.16" r="8.924" stroke-width="1.5"/><g stroke-linejoin="round" stroke-width="2.5"><g stroke-linecap="round" transform="matrix(0 1 -1 0 84.44 .535)"><path d="m12.3 0c-14.6159392 19.4270824-16.33479296 45.6672813-4.378 66.835" transform="translate(.699)"/><path d="m19.659 11.014-6.135-11.014-13.524.976"/></g><g stroke-linecap="round" transform="matrix(0 -1 1 0 17.606 97.692)"><path d="m12.3 0c-14.6159392 19.4270824-16.33479296 45.6672813-4.378 66.835" transform="translate(.699)"/><path d="m19.659 11.014-6.135-11.014-13.524.976"/></g><g><g transform="translate(40.624 30.513)"><path d="m21.166 8.263h-19.466c-.92976885.02164968-1.67835032.77023115-1.7 1.7v18.563c.02164968.9297689.77023115 1.6783503 1.7 1.7h19.581c.9297689-.0216497 1.6783503-.7702311 1.7-1.7v-18.563c-.1079045-.93424941-.8756954-1.65339241-1.815-1.7z"/><path d="m18.336 1.471c0-.792-.453-1.471-1.019-1.471h-12c-.566 0-1.019.679-1.019 1.471v6.791h14.035z"/></g><g stroke-linecap="round"><path d="m48.661 45.793h7.7"/><path d="m52.509 53.603v-7.81"/></g></g></g><path d="m27.829 49.062h12.671" stroke-width="3"/><path d="m63.5 49.062h10.174" stroke-width="3"/></g></g></svg>

<?xml version="1.0" encoding="UTF-8"?>
<svg width="103px" height="100px" viewBox="0 0 103 100" version="1.1" xmlns="http://www.w3.org/2000/svg" xmlns:xlink="http://www.w3.org/1999/xlink">
    <!-- Generator: Sketch 63.1 (92452) - https://sketch.com -->
    <title>treasury-decentralized-decision-making</title>
    <desc>Created with Sketch.</desc>
    <g id="Page-1" stroke="none" stroke-width="1" fill="none" fill-rule="evenodd">
        <g id="treasury-decentralized-decision-making" transform="translate(0.000000, 1.000000)">
            <g id="Group_3099" transform="translate(73.184000, 34.326000)">
                <g id="Ellipse_231">
                    <circle id="Oval" cx="14.834" cy="14.834" r="14.834"></circle>
                    <circle id="Oval" stroke="#686868" stroke-width="3" cx="14.834" cy="14.834" r="13.334"></circle>
                </g>
                <g id="Ellipse_232" transform="translate(5.160000, 5.160000)">
                    <circle id="Oval" cx="9.674" cy="9.674" r="9.674"></circle>
                    <circle id="Oval" stroke="#686868" stroke-width="1.5" cx="9.674" cy="9.674" r="8.924"></circle>
                </g>
            </g>
            <g id="Group_3560" transform="translate(0.052000, 34.326000)">
                <g id="Ellipse_231-2">
                    <circle id="Oval" cx="14.834" cy="14.834" r="14.834"></circle>
                    <circle id="Oval" stroke="#686868" stroke-width="3" cx="14.834" cy="14.834" r="13.334"></circle>
                </g>
                <g id="Ellipse_232-2" transform="translate(5.160000, 5.160000)">
                    <circle id="Oval" cx="9.674" cy="9.674" r="9.674"></circle>
                    <circle id="Oval" stroke="#686868" stroke-width="1.5" cx="9.674" cy="9.674" r="8.924"></circle>
                </g>
            </g>
            <g id="Group_1013" stroke-linecap="round" stroke-linejoin="round" transform="translate(50.940000, 10.535000) rotate(90.000000) translate(-50.940000, -10.535000) translate(40.940000, -22.965000)" stroke="#686868" stroke-width="2.5">
                <g id="Group_1012" transform="translate(0.699000, 0.000000)">
                    <path d="M12.3,0 C-2.3159392,19.4270824 -4.03479296,45.6672813 7.922,66.835" id="Path_1266"></path>
                </g>
                <polyline id="Path_1267" points="19.659 11.014 13.524 0 0 0.976"></polyline>
            </g>
            <g id="Group_3562" stroke-linecap="round" stroke-linejoin="round" transform="translate(51.106000, 87.692000) rotate(-90.000000) translate(-51.106000, -87.692000) translate(41.106000, 54.192000)" stroke="#686868" stroke-width="2.5">
                <g id="Group_1012-2" transform="translate(0.699000, 0.000000)">
                    <path d="M12.3,0 C-2.3159392,19.4270824 -4.03479296,45.6672813 7.922,66.835" id="Path_1266-2"></path>
                </g>
                <polyline id="Path_1267-2" points="19.659 11.014 13.524 0 0 0.976"></polyline>
            </g>
            <g id="Group_3561" stroke-linejoin="round" transform="translate(40.624000, 30.513000)" stroke="#686868" stroke-width="2.5">
                <g id="Group_897">
                    <path d="M21.166,8.263 L1.7,8.263 C0.770231146,8.28464968 0.0216496756,9.03323115 0,9.963 L0,28.526 C0.0216496756,29.4557689 0.770231146,30.2043503 1.7,30.226 L21.281,30.226 C22.2107689,30.2043503 22.9593503,29.4557689 22.981,28.526 L22.981,9.963 C22.8730955,9.02875059 22.1053046,8.30960759 21.166,8.263 L21.166,8.263 Z" id="Path_1183"></path>
                    <path d="M18.336,1.471 C18.336,0.679 17.883,0 17.317,0 L5.317,0 C4.751,0 4.298,0.679 4.298,1.471 L4.298,8.262 L18.333,8.262 L18.336,1.471 Z" id="Path_1184"></path>
                </g>
                <line x1="8.037" y1="15.28" x2="15.737" y2="15.28" id="Path_1185" stroke-linecap="round"></line>
                <line x1="11.885" y1="23.09" x2="11.885" y2="15.28" id="Line_534" stroke-linecap="round"></line>
            </g>
            <line x1="27.829" y1="49.062" x2="40.5" y2="49.062" id="Line_7910" stroke="#686868" stroke-width="3"></line>
            <line x1="63.5" y1="49.062" x2="73.674" y2="49.062" id="Line_7911" stroke="#686868" stroke-width="3"></line>
        </g>
    </g>
</svg>
